!!!OTL: Abschied im Korbe (105), S. 256f
!!!id: T0267
**kern
*clefG2
*k[f#c#g#]
*A:
{8e
=1
4a
8a
8cc#
8b
8a
=2
4a
8c#
4e}
=3
{8e
=4
4e
8a
8g#
8a
8b
=5
4.a}
4r
=6
{8e
=7
4a
8a
8cc#
8b
8a
=8
4a
8c#
4e}
=9
{8e
=10
4e
8a
8g#
8a
8b
=11
4.a}
4r
=12
{8a
=13
4a
8a
4a
8e
=14
4cc#
8a
4a}
=15
{8a
=16
4a
8a
4a
8e
=17
4cc#
8a
4a}
=18
{8a
=19
4dd
8dd
8cc#
8b
8a
=20
4.b}
4r
=21
{8e
=22
4a
8b
4cc#
8ee
=23
4dd
8e
4b}
=24
{8a
=25
4g#
8f#
8e
8g#
8b
=26
4.a}
4r
==
*-
!!!minrhy: 8
!!!meters: 6/8 ]  ZZ[9
!!!cut: Abschied im Korbe (105), S. 256f
!!!reg: Luxemburg
!!!trd: Singendes Volk, Esch-Alzette 1937 posth.
!!!rhy1: X  X_XXXX  X_XX_
!!!rhy2: X  X_XXXX  X_.0_
!!!key: T0267  08  A 6/8 ]  ZZ[9
!!!mod: HEPTATONIK IONISCH]  AMBITUS[10b
!!!kad: -51-5111221
!!!akz: 131-5_-5-71_131-5_-5-71_1131_1131_432_1342_-7-51_
!!!fot: 'a__b__a__b__c__c__d__bs'e__
!!!for: 'a__aw_a__aw_b__b__aw_b__aw_
!!!fok: '~__/__~__/__^__^__^a_~a_V__
!! PHRAS[AUFTAKTIG]
!!!fkt: Liebeslieder
!!!bem: Rosport, Maria Schiltz
!! THILL, Mathias:
!! PR[20] 2K[6] 2G[17] 3K[6] 3G[6] 4A[4] 4Ü[0] 5A[0] 6K[0] 6G[0]
!! 7K[0] 7G[0] 8A[0] MEHR[0] SI[37] ABS[54] SR[22] SP[15]
!! ST[12] 2k[13] 2g[24] 3k[0] 3g[4] 4d[0] 4ü[0] 5d[2] 6k[0] 6g[0]
!! 7k[0] 7g[0] 8d[0] mehr[0] si[43] dm[-6] sr[37] sp[6]
!! 1F[3] 2F[73] 3F[24] 4F[0] LF[0] 2P[0] 3P[0] 4P[0] TRI[0] DF[3] AB[59]
!! TF[0] U3K[0] U3[2] U4[2] U4Ü[0] U5[7] U6K[0] U6[4] U7K[0] U7[4]
!! N1[18] N2K[0] N2[13] N3K[0] N3[24] N4[13] N4Ü[0] N5[11] N6K[0] N6[4]
!!!n7k: 0] N7[0] O1[0] O2K[0] O2[0] O3K[0] O3[0] HÖ[0
